src/assets/icons/feedback.svg

<svg width="16" height="16" viewBox="0 0 16 16" fill="none" xmlns="http://www.w3.org/2000/svg">
<g clip-path="url(#clip0_9554_13631)">
<path fill-rule="evenodd" clip-rule="evenodd" d="M2.74164 0.0232221C2.2035 0.114071 1.7165 0.42822 1.43032 0.86911C1.27576 1.10724 1.20191 1.28127 1.133 1.56981C1.104 1.6913 1.10212 1.96214 1.09728 6.70817L1.09218 11.7183L0.552868 13.3374C0.124751 14.6227 0.011468 14.9813 0.00349966 15.0764C-0.0178745 15.3314 0.0779503 15.5863 0.258827 15.7555C0.447998 15.9325 0.665638 16.0139 0.903884 15.9968C0.99186 15.9905 1.71804 15.8161 3.19147 15.4475L5.35016 14.9073L9.70633 14.9069C12.312 14.9066 14.1293 14.8999 14.2287 14.8903C15.1306 14.8025 15.8449 14.1242 15.9789 13.2284C16.0002 13.0859 16.003 12.2688 15.999 7.36335L15.9943 1.66385L15.9555 1.51851C15.8453 1.10624 15.7062 0.860424 15.4229 0.577071C15.1395 0.2937 14.8937 0.154648 14.4814 0.0444766L14.3361 0.00562684L8.6078 0.0027883C3.84455 0.000428585 2.85629 0.0038656 2.74164 0.0232221ZM2.96501 1.73075C2.93679 1.74328 2.89447 1.77438 2.87096 1.79985L2.82821 1.84615L2.81959 6.919L2.81096 11.9919L2.77317 12.1116C2.75238 12.1774 2.60828 12.6117 2.45293 13.0766C2.2976 13.5415 2.17243 13.9238 2.17478 13.9262C2.17714 13.9285 2.83683 13.7639 3.64074 13.5603L5.10243 13.1902L9.62836 13.181L14.1543 13.1717L14.2068 13.1214C14.2357 13.0937 14.267 13.0437 14.2763 13.0103C14.2872 12.9708 14.2932 11.0146 14.2932 7.43602L14.2933 1.92259L14.2581 1.84983C14.2325 1.79699 14.2029 1.76741 14.1501 1.74183L14.0774 1.7066L8.54682 1.70727C3.97614 1.70782 3.0074 1.7119 2.96501 1.73075ZM5.12081 5.50379C4.78818 5.54235 4.47196 5.84897 4.40777 6.19519C4.38502 6.31787 4.39911 6.67817 4.43687 6.93901C4.70721 8.8073 6.19263 10.2517 8.07772 10.4793C8.30661 10.507 8.84616 10.502 9.08658 10.4701C10.6756 10.259 12.0002 9.16273 12.4957 7.64863C12.6696 7.11753 12.7528 6.41874 12.6769 6.12739C12.5929 5.80498 12.2979 5.54519 11.9678 5.503C11.8113 5.48301 5.29365 5.48375 5.12081 5.50379ZM6.28293 7.25107C6.28926 7.27224 6.33548 7.36882 6.38563 7.4657C6.75628 8.18177 7.42944 8.65462 8.24206 8.76968C8.42682 8.79585 8.84967 8.78141 9.02673 8.74289C9.79246 8.57632 10.4144 8.09301 10.7464 7.40649C10.7881 7.32032 10.8222 7.24144 10.8222 7.23122C10.8222 7.21788 10.1758 7.2126 8.5468 7.2126H6.27143L6.28293 7.25107Z" fill="currentColor"/>
</g>
<defs>
<clipPath id="clip0_9554_13631">
<rect width="16" height="16" fill="white" transform="translate(0 -0.000732422)"/>
</clipPath>
</defs>
</svg>

<svg xmlns="http://www.w3.org/2000/svg" width="16" height="16" fill="none">
  <g clip-path="url(#a)">
    <path fill="currentColor" fill-rule="evenodd" d="M2.742.023A1.965 1.965 0 0 0 1.43.87a1.978 1.978 0 0 0-.297.7c-.029.122-.03.393-.036 5.14l-.005 5.01-.54 1.618c-.427 1.286-.54 1.644-.549 1.74a.84.84 0 0 0 .256.678.832.832 0 0 0 .645.242c.088-.006.814-.18 2.287-.55l2.16-.54h4.355c2.606 0 4.423-.007 4.523-.017a1.95 1.95 0 0 0 1.75-1.662c.021-.142.024-.96.02-5.865l-.005-5.7-.038-.144c-.11-.413-.25-.659-.533-.942-.284-.283-.53-.422-.942-.533l-.145-.038L8.608.003C3.845 0 2.856.003 2.742.023Zm.223 1.708a.346.346 0 0 0-.094.069l-.043.046L2.82 6.92l-.009 5.073-.038.12c-.02.065-.165.5-.32.965-.155.464-.28.847-.278.85.002.002.662-.163 1.466-.367l1.461-.37 4.526-.009 4.526-.01.053-.05a.295.295 0 0 0 .07-.11c.01-.04.016-1.996.016-5.575V1.923l-.035-.073a.21.21 0 0 0-.108-.108l-.073-.035h-5.53c-4.57 0-5.54.005-5.582.024Zm2.156 3.773c-.333.038-.649.345-.713.691-.023.123-.009.483.029.744a4.166 4.166 0 0 0 3.64 3.54c.23.028.77.023 1.01-.009a4.156 4.156 0 0 0 3.409-2.821c.174-.531.257-1.23.18-1.522a.868.868 0 0 0-.708-.624c-.157-.02-6.674-.02-6.847 0ZM6.283 7.25c.006.021.052.118.103.215A2.44 2.44 0 0 0 8.242 8.77c.185.026.608.011.785-.027a2.463 2.463 0 0 0 1.795-1.512c0-.013-.646-.018-2.275-.018H6.27l.012.038Z" clip-rule="evenodd"/>
  </g>
  <defs>
    <clipPath id="a">
      <path fill="#fff" d="M0 0h16v16H0z"/>
    </clipPath>
  </defs>
</svg>
